X:1
T:Suomis sång
T:Suomis sång
T:Bind 2, No. 26
T:F. Pacius
T:E. v. Quanten
C:F. Pacius
Z:E. v. Quanten
%%score [ 1 2 3 4 ]
L:1/8
Q:1/4=82
M:3/4
K:G
V:1 treble-8 nm="T1"
V:2 treble-8 nm="T2"
V:3 bass nm="B1"
V:4 bass nm="B2"
V:1
"^Maestoso"!p! E3/2!<(! F/ G3/2 A/!<)! B3/2 c/ |!>(! (B>G) E2!>)!!pp! G G | G3!<(! G A ^A!<)! | %3
w: 1.Hör, hur herr- ligt sån- gen|skal- * lar mel- lan|Wai- nös ru- no-|
w: 2.Öf- ver- allt en röst oss|bju- * der, veröf- ver-|allt en stäm- ma|
 (!>!B3/2!>(!=A/4G/4)!>)! !fermata!F2!mf!!<(! !>!B !>!B!<)! | !>!e4 c2 | !>!B4!<(! B ^c!<)! | %6
w: hal- * * lar: det är|Suo- mis|sång, det är|
w: lju- * * der: det är|Suo- mis|sång, det är|
!ff!"^rit." d4 d2 |!>(! !fermata!d4 z2!>)! |:!p!"^Con moto" B3/2 ^A/ B3/2!<(! A/ B3/2!<)! e/ | %9
w: Suo- mis|sång!|Hör! de hö- ga fu- ror|
w: Suo- mis|sång!|Bro- der! e- ger du ett|
!>(! e2 ^d2!>)! z2 |!p! B3/2 ^A/!<(! B3/2 A/ B3/2!<)! e/ | %11
w: su- sa,|hör! de dju- pa ström- mar|
w: hjer- ta,|i dess tjus- ning, i dess|
!>(! e2 ^d2!>)!"^piu lento e con espressione"!<(! B B!<)! |!f! g4 f2 | e4!<(! !>!e !>!f!<)! | %14
w: bru- sa: det är|Suo- mis|sång! det är|
w: smär- ta hör blott|Suo- mis|sång! hör blott|
!>(! !>!B4 ^d2!>)! | !fermata!e4 z2 :| %16
w: Suo- mis|sång!|
w: Suo- mis|sång!|
V:2
!p! E3/2!<(! F/ G3/2 A/!<)! B3/2 c/ |!>(! (B>G) E2!>)!!pp! G G | E3!<(! E F F!<)! | %3
w: 1.Hör, hur herr- ligt sån- gen|skal- * lar mel- lan|Wai- nös ru- no-|
w: 2.Öf- ver- allt en röst oss|bju- * der, veröf- ver-|allt en stäm- ma|
 (!>!G3/2!>(!F/4E/4)!>)! !fermata!^D2 z2 | z2!mf! !>!B !>!B !>!c !>!A | !>!G4!<(! G A!<)! | %6
w: hal- * * lar:|det är Suo- mis|sång, det är|
w: lju- * * der:|det är Suo- mis|sång, det är|
!ff!"^rit." (!>!A3 !>!c) (!>!B!>!A) |!>(! !fermata!B4 z2!>)! |: z2 z2!p! B2- | %9
w: Suo- * mis _|sång!|Hör!|
w: Suo- * mis _|sång!|Bro-|
 B3/2 c/ B3/2!<(! c/ B3/2!<)! c/ |!>(! (BG)!>)! E2!<(! B3/2!<)! B/ | %11
w: * de hö- ga fu- ror|su- * sa, hör! de|
w: * der! e- ger du ett|hjer- * ta i dess|
!>(! B3/2 c/ B3/2!>)! c/"^piu lento e con espressione"!<(! B B!<)! |!f! d2 ^d4 | %13
w: dju- pa ström- mar: det är|Suo- mis|
w: tjus- ning, smär- ta hör blott|Suo- mis|
 e2 !>!B2!<(! !>!c !>!c!<)! |!>(! (!>!B2 A2) B2!>)! | !fermata!B4 z2 :| %16
w: sång! Det, det är|Suo- * mis|sång!|
w: sång! Hör, hör blott|Suo- * mis|sång!|
V:3
!p! E,3/2!<(! F,/ G,3/2 A,/!<)! B,3/2 C/ |!>(! (B,>G,) E,2!>)!!pp! E, E, | E,3!<(! E, E, E,!<)! | %3
w: 1.Hör, hur herr- ligt sån- gen|skal- * lar mel- lan|Wai- nös ru- no-|
w: 2.Öf- ver- allt en röst oss|bju- * der, veröf- ver-|allt en stäm- ma|
!>(! !>!E,2!>)! !fermata!^D,2 z2 | z2!mf! !>!G, !>!G, !>!E, !>!E, | !>!G,4!<(! G, G,!<)! | %6
w: hal- lar:|det är Suo- mis|sång, det är|
w: lju- der:|det är Suo- mis|sång, det är|
!ff!"^rit." (!>!G,2 !>!F,!>!A,) (!>!G,!>!F,) |!>(! !fermata!G,4 z2!>)! |: %8
w: Suo- * * mis _|sång!|
w: Suo- * * mis _|sång!|
!p! G,3/2 G,/ G,3/2!<(! G,/ G,3/2!<)! G,/ |!>(! A,2 A,2!>)! z2 | %10
w: Hör! de hö- ga fu- ror|su- sa,|
w: Bro- der! e- ger du ett|hjer- ta,|
!p! G,3/2 G,/!<(! G,3/2 G,/ G,3/2!<)! G,/ | %11
w: hör! de dju- pa ström- mar|
w: i dess tjus- ning, i dess|
!>(! A,2 A,2!>)!"^piu lento e con espressione"!<(! G, F,!<)! |!f! B,2 A,4 | %13
w: bru- sa: det är|Suo- mis|
w: smär- ta hör blott|Suo- mis|
 G,2 !>!G,2!<(! !>!E, !>!A,!<)! |!>(! (!>!G,2 F,2) A,2!>)! | !fermata!G,4 z2 :| %16
w: sång! Det, det är|Suo- * mis|sång!|
w: sång! Hör, hör blott|Suo- * mis|sång!|
V:4
!p! E,3/2!<(! F,/ G,3/2 A,/!<)! B,3/2 C/ |!>(! (B,>G,) E,2!>)!!pp! E, E, | C,3!<(! C, C, C,!<)! | %3
w: 1.Hör, hur herr- ligt sån- gen|skal- * lar mel- lan|Wai- nös ru- no-|
w: 2.Öf- ver- allt en röst oss|bju- * der, veröf- ver-|allt en stäm- ma|
!>(! !>!B,,2!>)! !fermata!B,,2 z2 | z2!mf! !>!E, !>!E, !>!A,, !>!C, | !>!E,4!<(! E, E,!<)! | %6
w: hal- lar:|det är Suo- mis|sång, det är|
w: lju- der:|det är Suo- mis|sång, det är|
!ff!"^rit." D,4 D,2 |!>(! !fermata!G,,4 z2!>)! |:!p! E,3/2 E,/ E,3/2!<(! E,/ E,3/2!<)! E,/ | %9
w: Suo- mis|sång!|Hör! de hö- ga fu- ror|
w: Suo- mis|sång!|Bro- der! e- ger du ett|
!>(! F,2 F,2!>)! z2 |!p! E,3/2 E,/!<(! E,3/2 E,/ E,3/2!<)! E,/ | %11
w: su- sa,|hör! de dju- pa ström- mar|
w: hjer- ta,|i dess tjus- ning, i dess|
!>(! F,2 F,2!>)!"^piu lento e con espressione"!<(! E, ^D,!<)! |!f! E,2 B,,4 | %13
w: bru- sa: det är|Suo- mis|
w: smär- ta hör blott|Suo- mis|
 C,2 !>!G,,2!<(! !>!A,, !>!A,,!<)! |!>(! !>!B,,4 B,,2!>)! | !fermata![E,,E,]4 z2 :| %16
w: sång! Det, det är|Suo- mis|sång!|
w: sång! Hör, hör blott|Suo- mis|sång!|

